Images/Icons/Linkedin.svg

<svg width="100" height="100" viewBox="0 0 100 100" fill="none" xmlns="http://www.w3.org/2000/svg">
<path d="M75 55.2923V73.7775H64.2831V56.5301C64.2831 52.1977 62.7327 49.241 58.8543 49.241C55.8931 49.241 54.131 51.2338 53.3553 53.1617C53.0725 53.8508 52.9995 54.8103 52.9995 55.7742V73.7775H42.279C42.279 73.7775 42.4231 44.5663 42.279 41.5403H52.9977V46.1095C52.9761 46.1438 52.9481 46.1807 52.9274 46.2141H52.9977V46.1095C54.422 43.9159 56.9652 40.7826 62.6579 40.7826C69.7127 40.7826 75 45.3906 75 55.2923ZM31.0657 26C27.3982 26 25 28.4054 25 31.5693C25 34.6638 27.3297 37.1421 30.9242 37.1421H30.9954C34.7341 37.1421 37.0583 34.6638 37.0583 31.5693C36.9881 28.4054 34.7341 26 31.0657 26ZM25.6369 73.7775H36.3529V41.5403H25.6369V73.7775Z" fill="black"/>
</svg>

<?xml version="1.0" encoding="utf-8"?>
<!-- Generator: Adobe Illustrator 27.1.1, SVG Export Plug-In . SVG Version: 6.00 Build 0)  -->
<svg version="1.1" id="Capa_1" xmlns="http://www.w3.org/2000/svg" xmlns:xlink="http://www.w3.org/1999/xlink" x="0px" y="0px"
	 viewBox="0 0 100 100" style="enable-background:new 0 0 100 100;" xml:space="preserve">
<style type="text/css">
	.st0{fill:#121212;}
</style>
<path class="st0" d="M75,55.3v18.5H64.3V56.5c0-4.3-1.6-7.3-5.4-7.3c-3,0-4.7,2-5.5,3.9c-0.3,0.7-0.4,1.6-0.4,2.6v18H42.3
	c0,0,0.1-29.2,0-32.2H53v4.6c0,0,0,0.1-0.1,0.1H53v-0.1c1.4-2.2,4-5.3,9.7-5.3C69.7,40.8,75,45.4,75,55.3z M31.1,26
	c-3.7,0-6.1,2.4-6.1,5.6c0,3.1,2.3,5.6,5.9,5.6H31c3.7,0,6.1-2.5,6.1-5.6C37,28.4,34.7,26,31.1,26z M25.6,73.8h10.7V41.5H25.6V73.8z
	"/>
</svg>
